X:8093
T:John Brady's
R:Reel
S:
H:
N:
D:Liz Carroll/Tommy Maguire: Kiss Me Kate
Z:Adrian Scahill
M:4/4
L:1/8
K:G 
AFFE FAFE|DEFG ADFd|BGGF G3g|fdcA (3d^cd =cA|\
BGGF GFGA|BG (3Bcd gdBG|DEFG AdcA|1 BGGF G2dB:|2BGGF G3B||\
dgg2 bgag|fdcA (3d^cd =cA|BGG2 fdaf|1 dafa gfgb|\
agg2 adfa|=fefc AD^FA|DGBd ga (3gfe|fdcA G3B:|2 dafa g3a|\
_b=ff2 gfde|=fdgf dcA^F|DGBd ga (3gfe|fdcA G4||


